src/components/profile_avatars/profile-female-4.svg

<svg xmlns="http://www.w3.org/2000/svg" width="528" height="528" fill="none" viewBox="0 0 528 528"><g clip-path="url(#a)"><ellipse cx="265.5" cy="281.5" fill="#f4bb38" rx="257.5" ry="254.5"/><circle cx="169.01" cy="421.893" r="115.898" fill="#372004"/><circle cx="104.769" cy="327.189" r="68.8763" fill="#372004"/><circle cx="125.3" cy="220.563" r="70.8631" fill="#372004"/><circle cx="293.517" cy="107.977" r="103.977" fill="#372004"/><circle cx="169.01" cy="123.871" r="78.8104" fill="#372004"/><circle cx="204.773" cy="54.9947" r="43.0477" fill="#372004"/><circle cx="399.481" cy="195.397" r="70.8631" fill="#372004"/><circle cx="406.103" cy="314.606" r="94.7049" fill="#372004"/><circle cx="410.077" cy="421.893" r="115.898" fill="#372004"/><path fill="#fff" d="M496.529 896.58c27.696 319.97 59.462 573.29-105.155 587.54S77.1079 1216.55 49.4123 896.577c1.7124-417.068-71.7999-469.385 228.8717-501.836 239.08 27.815 239.076 69.938 274.843 178.149 79.414 240.272-70.864 158.863-56.598 323.69"/><path fill="#9e765c" d="M212.779 383.95c7.629-67.682-14.534-108.111-4.848-188.093 43.587-41.59 118.749 11.222 118.749 64.969 0 53.748-6.623 108.464 10.547 139.875-4.843 28.793 19.206 113.91-56.955 113.91-82.785-11.92-71.774-92.688-67.493-130.661"/><path stroke="#f1bc26" stroke-linecap="round" stroke-width="10.5964" d="M206.5 403c-2.5 15 14 58 64.5 55.219 56.415-3.107 76-39.719 70-59.719"/><path fill="#845d43" d="M270.38 385.411c-25.459 4.788-50.192-13.253-55.806-22.111l-.53-11.53c6.316-1.898 26.866 1.862 53.252 6.418 26.386 4.555 39.217-31.302 59.334-44.167l1.325 5.96c-.702 8.225.662 15.232-2.649 21.855-11.675 23.349-34.168 39.672-54.926 43.575"/><rect width="45.3901" height="68.0851" x="348.066" y="192.866" fill="#9e765c" rx="22.695" transform="rotate(24.59 348.066 192.866)"/><rect width="44.0623" height="66.0935" fill="#9e765c" rx="22.0312" transform="rotate(166.16114 73.3315159 108.16251441)scale(1 -1)"/><path fill="#9e765c" d="M357.757 215.263c2.649-43.044-13.246-67.551-25.828-84.771-42.386-17.881-71.547 24.419-110.606 13.678-31.246-8.593-55.277 3.172-61.872 11.384-6.596 8.213-7.101 22.206-12.695 53.212-6.993 38.758 16.956 163.566 114.362 163.566 86.705 0 95.142-132.743 96.639-157.069"/><path fill="#fdfcf5" d="M252.854 313.092c13.27-.817 29.541-6.009 37.182-9.473.736-.333 1.633.517 1.356 1.276-2.967 8.147-6.574 23.934-34.827 26.256-29.436 2.419-36.127-14.582-38.177-22.603-.164-.64.471-1.187 1.089-.954 6.837 2.583 19.548 6.35 33.377 5.498"/><circle cx="189.54" cy="128.507" r="46.359" fill="#372004"/><ellipse cx="80.7972" cy="71.5254" fill="#372004" rx="80.7972" ry="71.5254" transform="matrix(-1 0 0 1 374.976 38.4382)"/><path fill="#372004" d="M192.037 192.338c13.162-11.945-5.791-32.718-20.005-39.989-4.563 2.597-12.951 8.725-10.003 12.464 3.686 4.674 30.008 12.702 0 29.602-13.9 7.828-18.537 33.433 0 45.354 10.272 6.605 19.963 21.084 10.003 29.95-13.97 12.435-7.347 28.992 7.885 34.29-14.922-14.57-.315-26.281 5.276-30.655 19.228-15.042 9.013-26.805-7.262-40.208-22.518-18.544.945-28.864 14.106-40.808"/></g><defs><clipPath id="a"><path fill="#fff" d="M0 264C0 118.197 118.197 0 264 0s264 118.197 264 264-118.197 264-264 264S0 409.803 0 264"/></clipPath></defs></svg>

<svg width="528" height="528" viewBox="0 0 528 528" fill="none" xmlns="http://www.w3.org/2000/svg">
<g clip-path="url(#clip0_15659_307899)">
<ellipse cx="265.5" cy="281.5" rx="257.5" ry="254.5" fill="#F4BB38"/>
<circle cx="169.01" cy="421.893" r="115.898" fill="#372004"/>
<circle cx="104.769" cy="327.189" r="68.8763" fill="#372004"/>
<circle cx="125.3" cy="220.563" r="70.8631" fill="#372004"/>
<circle cx="293.517" cy="107.977" r="103.977" fill="#372004"/>
<circle cx="169.01" cy="123.871" r="78.8104" fill="#372004"/>
<circle cx="204.773" cy="54.9947" r="43.0477" fill="#372004"/>
<circle cx="399.481" cy="195.397" r="70.8631" fill="#372004"/>
<circle cx="406.103" cy="314.606" r="94.7049" fill="#372004"/>
<circle cx="410.077" cy="421.893" r="115.898" fill="#372004"/>
<path d="M496.529 896.58C524.225 1216.55 555.991 1469.87 391.374 1484.12C226.757 1498.37 77.1079 1216.55 49.4123 896.577C51.1247 479.509 -22.3876 427.192 278.284 394.741C517.364 422.556 517.36 464.679 553.127 572.89C632.541 813.162 482.263 731.753 496.529 896.58Z" fill="white"/>
<path d="M212.779 383.95C220.408 316.268 198.245 275.839 207.931 195.857C251.518 154.267 326.68 207.079 326.68 260.826C326.68 314.574 320.057 369.29 337.227 400.701C332.384 429.494 356.433 514.611 280.272 514.611C197.487 502.691 208.498 421.923 212.779 383.95Z" fill="#9E765C"/>
<path d="M206.5 403C204 418 220.5 461 271 458.219C327.415 455.112 347 418.5 341 398.5" stroke="#F1BC26" stroke-width="10.5964" stroke-linecap="round"/>
<path d="M270.38 385.411C244.921 390.199 220.188 372.158 214.574 363.3L214.044 351.77C220.36 349.872 240.91 353.632 267.296 358.188C293.682 362.743 306.513 326.886 326.63 314.021L327.955 319.981C327.253 328.206 328.617 335.213 325.306 341.836C313.631 365.185 291.138 381.508 270.38 385.411Z" fill="#845D43"/>
<rect x="348.066" y="192.866" width="45.3901" height="68.0851" rx="22.695" transform="rotate(24.59 348.066 192.866)" fill="#9E765C"/>
<rect width="44.0623" height="66.0935" rx="22.0312" transform="matrix(-0.970972 0.239192 0.239192 0.970972 170.406 195.645)" fill="#9E765C"/>
<path d="M357.757 215.263C360.406 172.219 344.511 147.712 331.929 130.492C289.543 112.611 260.382 154.911 221.323 144.17C190.077 135.577 166.046 147.342 159.451 155.554C152.855 163.767 152.35 177.76 146.756 208.766C139.763 247.524 163.712 372.332 261.118 372.332C347.823 372.332 356.26 239.589 357.757 215.263Z" fill="#9E765C"/>
<path d="M252.854 313.092C266.124 312.275 282.395 307.083 290.036 303.619C290.772 303.286 291.669 304.136 291.392 304.895C288.425 313.042 284.818 328.829 256.565 331.151C227.129 333.57 220.438 316.569 218.388 308.548C218.224 307.908 218.859 307.361 219.477 307.594C226.314 310.177 239.025 313.944 252.854 313.092Z" fill="#FDFCF5"/>
<circle cx="189.54" cy="128.507" r="46.359" fill="#372004"/>
<ellipse cx="80.7972" cy="71.5254" rx="80.7972" ry="71.5254" transform="matrix(-1 0 0 1 374.976 38.4382)" fill="#372004"/>
<path d="M192.037 192.338C205.199 180.393 186.246 159.62 172.032 152.349C167.469 154.946 159.081 161.074 162.029 164.813C165.715 169.487 192.037 177.515 162.029 194.415C148.129 202.243 143.492 227.848 162.029 239.769C172.301 246.374 181.992 260.853 172.032 269.719C158.062 282.154 164.685 298.711 179.917 304.009C164.995 289.439 179.602 277.728 185.193 273.354C204.421 258.312 194.206 246.549 177.931 233.146C155.413 214.602 178.876 204.282 192.037 192.338Z" fill="#372004"/>
</g>
<defs>
<clipPath id="clip0_15659_307899">
<path d="M0 264C0 118.197 118.197 0 264 0C409.803 0 528 118.197 528 264C528 409.803 409.803 528 264 528C118.197 528 0 409.803 0 264Z" fill="white"/>
</clipPath>
</defs>
</svg>
